src/logo-trade-mobile.svg

<svg xmlns="http://www.w3.org/2000/svg" class="dibsvg-svg dibsvg-logo-trade-mobile" viewBox="0 0 116 20">
    <polygon points="112.109 19.4225 112.109 14.7505 115.31 14.7505 115.31 15.4725 112.928 15.4725 112.928 16.6845 115.261 16.6845 115.261 17.4055 112.928 17.4055 112.928 18.7005 115.31 18.7005 115.31 19.4225"/>
    <path d="M107.5045,17.0904 C107.5045,16.1874 106.9435,15.4724 105.9005,15.4724 L104.9835,15.4724 L104.9835,18.7004 L105.9005,18.7004 C106.9165,18.7004 107.5045,17.9724 107.5045,17.0904 L107.5045,17.0904 Z M104.1635,19.4224 L104.1635,14.7504 L105.9005,14.7504 C107.3585,14.7504 108.3455,15.7174 108.3455,17.0904 C108.3455,18.4624 107.3585,19.4224 105.9005,19.4224 L104.1635,19.4224 Z"/>
    <path d="M98.3346,15.5777 L97.4936,17.8047 L99.1746,17.8047 L98.3346,15.5777 Z M99.7486,19.4227 L99.4056,18.5257 L97.2626,18.5257 L96.9196,19.4227 L95.9876,19.4227 L97.8226,14.7507 L98.8456,14.7507 L100.6806,19.4227 L99.7486,19.4227 Z"/>
    <path d="M91.8458,16.2145 C91.8458,15.7665 91.5098,15.4725 91.0478,15.4725 L89.9268,15.4725 L89.9268,16.9565 L91.0478,16.9565 C91.5098,16.9565 91.8458,16.6625 91.8458,16.2145 L91.8458,16.2145 Z M91.7758,19.4225 L90.7388,17.6785 L89.9268,17.6785 L89.9268,19.4225 L89.1068,19.4225 L89.1068,14.7505 L91.1588,14.7505 C92.0838,14.7505 92.6858,15.3535 92.6858,16.2145 C92.6858,17.0485 92.1398,17.4965 91.5798,17.5875 L92.7208,19.4225 L91.7758,19.4225 Z"/>
    <polygon points="81.792 14.7509 81.792 15.4729 83.207 15.4729 83.207 19.4229 84.026 19.4229 84.026 15.4729 85.441 15.4729 85.441 14.7509"/>
    <path d="M78.2646,17.9033 C78.4236,17.9033 78.5206,17.8373 78.5206,17.7143 L78.5206,17.7043 C78.5206,17.5813 78.4176,17.5193 78.2696,17.5193 L77.9826,17.5193 L77.9826,17.9033 L78.2646,17.9033 Z M77.3226,16.9673 L78.2846,16.9673 C78.6326,16.9673 78.8586,17.0543 78.9966,17.1923 C79.1136,17.3093 79.1756,17.4583 79.1756,17.6633 L79.1756,17.6733 C79.1756,17.9543 79.0276,18.1543 78.7866,18.2673 L79.2476,18.9373 L78.4996,18.9373 L78.1216,18.3743 L78.1106,18.3743 L77.9826,18.3743 L77.9826,18.9373 L77.3226,18.9373 L77.3226,16.9673 Z M79.8256,18.0053 L79.8256,17.9953 C79.8256,17.0893 79.1246,16.3423 78.1926,16.3423 C77.2566,16.3423 76.5496,17.1003 76.5496,18.0053 L76.5496,18.0163 C76.5496,18.9223 77.2516,19.6693 78.1826,19.6693 C79.1196,19.6693 79.8256,18.9113 79.8256,18.0053 L79.8256,18.0053 Z M76.3346,18.0163 L76.3346,18.0053 C76.3346,16.9973 77.1536,16.1373 78.1926,16.1373 C79.2316,16.1373 80.0406,16.9873 80.0406,17.9953 L80.0406,18.0053 C80.0406,19.0143 79.2216,19.8733 78.1826,19.8733 C77.1436,19.8733 76.3346,19.0243 76.3346,18.0163 L76.3346,18.0163 Z"/>
    <path d="M75.8333,6.2532 L75.2293,10.4612 L74.7173,10.4612 C74.6453,9.3802 74.3123,8.5282 73.7193,7.9062 C73.1253,7.2852 72.4893,6.9742 71.8103,6.9742 C71.3933,6.9742 71.0493,7.0962 70.7783,7.3412 C70.5063,7.5862 70.3703,7.8812 70.3703,8.2252 C70.3703,8.5162 70.4293,8.7882 70.5473,9.0412 C70.6653,9.2962 70.9283,9.6402 71.3363,10.0762 C72.7703,11.6182 73.6413,12.6782 73.9513,13.2562 C74.2603,13.8352 74.4153,14.4542 74.4153,15.1132 C74.4153,15.8272 74.2333,16.5032 73.8693,17.1402 C73.5053,17.7772 72.9623,18.2882 72.2393,18.6722 C71.5163,19.0562 70.7633,19.2482 69.9813,19.2482 C69.4543,19.2482 68.8043,19.1472 68.0313,18.9472 C67.5223,18.8072 67.1403,18.7382 66.8853,18.7382 C66.6583,18.7382 66.4803,18.7702 66.3533,18.8362 C66.2253,18.9012 66.0843,19.0382 65.9303,19.2482 L65.4193,19.2482 L66.0933,14.7152 L66.5343,14.7152 C66.8523,15.8202 67.1503,16.6082 67.4273,17.0792 C67.7043,17.5492 68.0743,17.9242 68.5373,18.2022 C69.0003,18.4812 69.4453,18.6202 69.8723,18.6202 C70.3723,18.6202 70.7853,18.4642 71.1123,18.1512 C71.4393,17.8382 71.6023,17.4642 71.6023,17.0282 C71.6023,16.6022 71.4953,16.1892 71.2823,15.7902 C71.0683,15.3912 70.5763,14.7702 69.8043,13.9262 C68.7413,12.7742 68.0413,11.8842 67.7043,11.2552 C67.4663,10.8002 67.3483,10.2802 67.3483,9.6972 C67.3483,8.7132 67.7053,7.8932 68.4193,7.2372 C69.1333,6.5812 70.1363,6.2532 71.4283,6.2532 C71.9923,6.2532 72.6843,6.3572 73.5033,6.5642 C73.9123,6.6682 74.2403,6.7192 74.4853,6.7192 C74.8403,6.7192 75.1263,6.5642 75.3453,6.2532 L75.8333,6.2532 Z"/>
    <path d="M30.3652,2.929 L29.2242,6.625 L30.7492,6.625 L30.2722,8.183 L28.7252,8.183 L26.2532,16.186 C26.0952,16.683 26.0162,17.06 26.0162,17.318 C26.0162,17.405 26.0562,17.48 26.1382,17.544 C26.2202,17.607 26.3102,17.639 26.4102,17.639 C26.5642,17.639 26.7232,17.575 26.8862,17.448 C27.3032,17.13 27.7882,16.575 28.3402,15.784 L28.8292,16.084 C28.2012,17.175 27.5102,17.975 26.7562,18.484 C26.0012,18.993 25.2602,19.248 24.5332,19.248 C23.9142,19.248 23.4352,19.092 23.0942,18.781 C22.7532,18.469 22.5832,18.074 22.5832,17.596 C22.5832,17.068 22.7102,16.391 22.9642,15.563 L25.2812,8.183 L23.5332,8.183 L23.7912,7.178 C24.8962,6.753 25.8572,6.255 26.6742,5.685 C27.4912,5.115 28.4752,4.196 29.6272,2.929 L30.3652,2.929 Z"/>
    <path d="M55.3446,18.0715 C55.7526,18.3445 56.1216,18.4805 56.4506,18.4805 C56.9106,18.4805 57.2966,18.3855 57.6096,18.1945 C58.1036,17.8855 58.6226,17.3265 59.1646,16.5165 C59.7076,15.7075 60.1606,14.7295 60.5256,13.5845 C60.8896,12.4385 61.0716,11.2975 61.0716,10.1605 C61.0716,9.5155 60.9356,9.0235 60.6656,8.6875 C60.3946,8.3515 60.0806,8.1825 59.7246,8.1825 C59.1316,8.1825 58.6146,8.5005 58.1746,9.1345 C57.8776,9.5455 57.5556,10.4185 57.2086,11.7525 L55.3446,18.0715 Z M60.6746,0.0005 L58.2616,8.1795 C58.9466,7.4075 59.5186,6.8935 59.9786,6.6375 C60.4376,6.3815 60.9366,6.2535 61.4736,6.2535 C62.5146,6.2535 63.2926,6.6455 63.8086,7.4305 C64.3246,8.2155 64.5826,9.1195 64.5826,10.1445 C64.5826,12.5945 63.7116,14.7805 61.9706,16.7035 C60.4246,18.3995 58.6656,19.2475 56.6936,19.2475 C55.2276,19.2475 53.6776,18.8105 52.0436,17.9365 L56.2616,3.5825 C56.4576,2.8995 56.5686,2.4225 56.5956,2.1505 C56.5956,1.9175 56.4976,1.7325 56.3016,1.5965 C56.0266,1.4035 55.6106,1.3215 55.0516,1.3485 L55.1676,0.8135 L59.8366,0.0005 L60.6746,0.0005 Z"/>
    <path d="M51.1788,6.2532 L48.1458,15.8512 C47.9788,16.4002 47.8948,16.7602 47.8948,16.9312 C47.8948,17.0352 47.9348,17.1312 48.0158,17.2212 C48.0968,17.3102 48.1828,17.3552 48.2728,17.3552 C48.4258,17.3552 48.5788,17.2842 48.7318,17.1432 C49.1368,16.7942 49.6228,16.1632 50.1898,15.2492 L50.6548,15.5322 C49.2738,18.0092 47.8058,19.2482 46.2508,19.2482 C45.6558,19.2482 45.1828,19.0832 44.8308,18.7532 C44.4778,18.4242 44.3018,18.0062 44.3018,17.5002 C44.3018,17.1642 44.3868,16.7362 44.5578,16.2182 L46.6458,9.7002 C46.8458,9.0732 46.9458,8.6002 46.9458,8.2822 C46.9458,8.0822 46.8538,7.9052 46.6708,7.7502 C46.4868,7.5952 46.2358,7.5182 45.9168,7.5182 C45.7718,7.5182 45.5978,7.5222 45.3948,7.5322 L45.5808,6.9972 L50.3368,6.2532 L51.1788,6.2532 Z M50.0718,0.0002 C50.6398,0.0002 51.1178,0.1962 51.5068,0.5882 C51.8948,0.9802 52.0898,1.4542 52.0898,2.0112 C52.0898,2.5672 51.8928,3.0412 51.4998,3.4332 C51.1058,3.8262 50.6298,4.0212 50.0718,4.0212 C49.5228,4.0212 49.0518,3.8262 48.6588,3.4332 C48.2648,3.0412 48.0678,2.5672 48.0678,2.0112 C48.0678,1.4542 48.2628,0.9802 48.6518,0.5882 C49.0398,0.1962 49.5138,0.0002 50.0718,0.0002 L50.0718,0.0002 Z"/>
    <path d="M39.111,8.6138 C39.111,8.0598 39,7.6558 38.778,7.4018 C38.556,7.1478 38.297,7.0208 38.002,7.0208 C37.706,7.0208 37.387,7.1708 37.045,7.4698 C36.388,8.0508 35.702,9.2198 34.985,10.9768 C34.269,12.7338 33.911,14.2118 33.911,15.4108 C33.911,15.8468 33.989,16.1688 34.147,16.3778 C34.304,16.5868 34.479,16.6908 34.674,16.6908 C34.997,16.6908 35.321,16.5458 35.644,16.2548 C36.43,15.5648 37.204,14.3778 37.967,12.6928 C38.73,11.0088 39.111,9.6488 39.111,8.6138 L39.111,8.6138 Z M45.227,-0.0002 L40.611,15.2088 C40.317,16.1608 40.171,16.7358 40.171,16.9348 C40.171,17.0358 40.206,17.1228 40.279,17.1958 C40.351,17.2688 40.428,17.3048 40.509,17.3048 C40.663,17.3048 40.839,17.2268 41.038,17.0718 C41.372,16.8168 41.778,16.3338 42.257,15.6218 L42.745,15.8818 C41.465,18.1258 40.059,19.2478 38.525,19.2478 C37.981,19.2478 37.561,19.1048 37.266,18.8198 C36.971,18.5348 36.824,18.1708 36.824,17.7268 C36.824,17.3008 36.942,16.6948 37.178,15.9068 L37.608,14.5168 C36.469,16.5208 35.481,17.8538 34.643,18.5148 C34.006,19.0038 33.386,19.2478 32.786,19.2478 C32.102,19.2478 31.526,18.9708 31.057,18.4178 C30.589,17.8648 30.354,17.0578 30.354,15.9958 C30.354,14.6448 30.657,13.3108 31.262,11.9958 C31.868,10.6798 32.567,9.5828 33.361,8.7028 C34.154,7.8228 34.911,7.1948 35.632,6.8178 C36.351,6.4418 37.06,6.2528 37.758,6.2528 C38.115,6.2528 38.434,6.3278 38.714,6.4758 C38.994,6.6248 39.312,6.9028 39.67,7.3108 L40.736,3.9368 C41.008,3.0878 41.144,2.4788 41.144,2.1098 C41.144,1.8878 41.051,1.6988 40.866,1.5428 C40.68,1.3858 40.433,1.3078 40.124,1.3078 C39.979,1.3078 39.799,1.3218 39.583,1.3478 L39.699,0.8138 L44.374,-0.0002 L45.227,-0.0002 Z"/>
    <path d="M21.5813,6.2532 L20.9773,10.4612 L20.4653,10.4612 C20.3933,9.3802 20.0603,8.5282 19.4673,7.9062 C18.8733,7.2852 18.2373,6.9742 17.5583,6.9742 C17.1413,6.9742 16.7973,7.0962 16.5263,7.3412 C16.2543,7.5862 16.1183,7.8812 16.1183,8.2252 C16.1183,8.5162 16.1773,8.7882 16.2953,9.0412 C16.4133,9.2962 16.6763,9.6402 17.0843,10.0762 C18.5183,11.6182 19.3893,12.6782 19.6993,13.2562 C20.0083,13.8352 20.1633,14.4542 20.1633,15.1132 C20.1633,15.8272 19.9813,16.5032 19.6173,17.1402 C19.2533,17.7772 18.7103,18.2882 17.9873,18.6722 C17.2643,19.0562 16.5113,19.2482 15.7293,19.2482 C15.2023,19.2482 14.5523,19.1472 13.7793,18.9472 C13.2703,18.8072 12.8883,18.7382 12.6333,18.7382 C12.4063,18.7382 12.2283,18.7702 12.1013,18.8362 C11.9733,18.9012 11.8323,19.0382 11.6783,19.2482 L11.1673,19.2482 L11.8413,14.7152 L12.2823,14.7152 C12.6003,15.8202 12.8983,16.6082 13.1753,17.0792 C13.4523,17.5492 13.8223,17.9242 14.2853,18.2022 C14.7483,18.4812 15.1933,18.6202 15.6203,18.6202 C16.1203,18.6202 16.5333,18.4642 16.8603,18.1512 C17.1873,17.8382 17.3503,17.4642 17.3503,17.0282 C17.3503,16.6022 17.2433,16.1892 17.0303,15.7902 C16.8163,15.3912 16.3243,14.7702 15.5523,13.9262 C14.4893,12.7742 13.7893,11.8842 13.4523,11.2552 C13.2143,10.8002 13.0963,10.2802 13.0963,9.6972 C13.0963,8.7132 13.4533,7.8932 14.1673,7.2372 C14.8813,6.5812 15.8843,6.2532 17.1763,6.2532 C17.7403,6.2532 18.4323,6.3572 19.2513,6.5642 C19.6603,6.6682 19.9883,6.7192 20.2333,6.7192 C20.5883,6.7192 20.8743,6.5642 21.0933,6.2532 L21.5813,6.2532 Z"/>
    <path d="M11.88,0.0465 L7.265,15.5295 C7.029,16.3405 6.911,16.8565 6.911,17.0745 C6.911,17.2935 6.995,17.5195 7.163,17.7515 C7.331,17.9845 7.512,18.1355 7.708,18.2035 C7.903,18.2715 8.491,18.3335 9.471,18.3875 L9.322,18.8765 L0,18.8765 L0.15,18.3875 C1.076,18.3695 1.721,18.2925 2.084,18.1555 C2.447,18.0185 2.745,17.7955 2.976,17.4855 C3.208,17.1755 3.469,16.5235 3.759,15.5295 L6.473,6.3335 C6.901,4.9365 7.124,4.1965 7.143,4.1145 C7.2,3.8785 7.229,3.6565 7.229,3.4475 C7.229,3.0425 7.103,2.7205 6.853,2.4815 C6.602,2.2425 6.244,2.1225 5.779,2.1225 C5.551,2.1225 5.1,2.1595 4.426,2.2315 L4.309,1.7205 L11.303,0.0465 L11.88,0.0465 Z"/>
</svg>

<svg xmlns="http://www.w3.org/2000/svg" class="dibsvg-svg dibsvg-logo-trade-mobile" viewBox="0 0 116 20">
    <polygon points="112.109 19.4225 112.109 14.7505 115.31 14.7505 115.31 15.4725 112.928 15.4725 112.928 16.6845 115.261 16.6845 115.261 17.4055 112.928 17.4055 112.928 18.7005 115.31 18.7005 115.31 19.4225"/>
    <path d="M107.504 17.09c0-.903-.56-1.618-1.604-1.618h-.916V18.7h.916c1.016 0 1.604-.728 1.604-1.61zm-3.34 2.332V14.75h1.736c1.459 0 2.445.967 2.445 2.34 0 1.372-.986 2.332-2.445 2.332h-1.737z"/>
    <path d="M98.335 15.578l-.841 2.227h1.68l-.84-2.227zm1.414 3.845l-.343-.897h-2.143l-.343.897h-.932l1.835-4.672h1.023l1.835 4.672h-.932z"/>
    <path d="M91.846 16.215c0-.448-.336-.742-.798-.742h-1.121v1.483h1.12c.463 0 .799-.293.799-.741zm-.07 3.207l-1.037-1.744h-.812v1.744h-.82v-4.671h2.052c.925 0 1.527.603 1.527 1.464 0 .834-.546 1.282-1.106 1.372l1.14 1.835h-.944z"/>
    <polygon points="81.792 14.7509 81.792 15.4729 83.207 15.4729 83.207 19.4229 84.026 19.4229 84.026 15.4729 85.441 15.4729 85.441 14.7509"/>
    <path d="M78.265 17.903c.159 0 .256-.066.256-.189v-.01c0-.123-.103-.185-.251-.185h-.287v.384h.282zm-.942-.936h.962c.348 0 .574.087.712.225a.626.626 0 0 1 .179.471v.01c0 .281-.148.481-.39.594l.462.67H78.5l-.378-.563h-.139v.563h-.66v-1.97zm2.503 1.038v-.01c0-.906-.701-1.653-1.633-1.653-.936 0-1.643.758-1.643 1.663v.011c0 .906.702 1.653 1.633 1.653.937 0 1.643-.758 1.643-1.664zm-3.491.011v-.01c0-1.009.819-1.869 1.858-1.869 1.039 0 1.848.85 1.848 1.858v.01a1.87 1.87 0 0 1-1.858 1.868 1.852 1.852 0 0 1-1.848-1.857z"/>
    <path d="M75.833 6.253l-.604 4.208h-.512c-.072-1.08-.405-1.933-.998-2.555-.594-.62-1.23-.932-1.909-.932-.417 0-.76.122-1.032.367a1.15 1.15 0 0 0-.408.884c0 .291.06.563.177.816.118.255.381.6.79 1.035 1.433 1.542 2.304 2.602 2.614 3.18.31.58.464 1.198.464 1.857 0 .714-.182 1.39-.546 2.027-.364.637-.907 1.148-1.63 1.532a4.753 4.753 0 0 1-2.258.576c-.527 0-1.177-.1-1.95-.3-.509-.14-.89-.21-1.146-.21-.227 0-.405.032-.532.098-.128.065-.269.202-.423.412h-.51l.673-4.533h.441c.318 1.105.616 1.893.893 2.364.277.47.647.845 1.11 1.123.463.28.908.418 1.335.418.5 0 .913-.156 1.24-.469a1.5 1.5 0 0 0 .49-1.123c0-.426-.107-.839-.32-1.238-.214-.399-.706-1.02-1.478-1.864-1.063-1.152-1.763-2.042-2.1-2.67-.238-.456-.356-.976-.356-1.559 0-.984.357-1.804 1.071-2.46.714-.656 1.717-.984 3.01-.984.563 0 1.255.104 2.074.311.41.104.737.155.982.155.355 0 .641-.155.86-.466h.488z"/>
    <path d="M30.365 2.929l-1.14 3.696h1.524l-.477 1.558h-1.547l-2.472 8.003c-.158.497-.237.874-.237 1.132 0 .087.04.162.122.226a.435.435 0 0 0 .272.095c.154 0 .313-.064.476-.191.417-.318.902-.873 1.454-1.664l.49.3c-.629 1.091-1.32 1.891-2.074 2.4-.755.509-1.496.764-2.223.764-.619 0-1.098-.156-1.439-.467a1.536 1.536 0 0 1-.51-1.185c0-.528.126-1.205.38-2.033l2.317-7.38h-1.748l.258-1.005c1.105-.425 2.066-.923 2.883-1.493.817-.57 1.801-1.489 2.953-2.756h.738z"/>
    <path d="M55.345 18.072c.408.273.777.409 1.106.409.46 0 .846-.096 1.159-.287.494-.308 1.013-.867 1.555-1.677.543-.81.996-1.787 1.36-2.932a11.24 11.24 0 0 0 .547-3.425c0-.645-.136-1.136-.406-1.473-.271-.335-.585-.505-.941-.505-.593 0-1.11.319-1.55.952-.297.412-.62 1.284-.966 2.618l-1.864 6.32zM60.675 0l-2.413 8.18c.685-.772 1.257-1.286 1.717-1.542a3.02 3.02 0 0 1 1.495-.385c1.04 0 1.819.393 2.335 1.178.516.785.774 1.689.774 2.714 0 2.45-.871 4.636-2.612 6.558-1.546 1.697-3.305 2.544-5.277 2.544-1.466 0-3.016-.436-4.65-1.31l4.218-14.355c.196-.682.307-1.16.334-1.431a.64.64 0 0 0-.294-.554c-.275-.194-.691-.276-1.25-.248l.116-.535L59.837 0h.838z"/>
    <path d="M51.179 6.253l-3.033 9.598c-.167.55-.251.91-.251 1.08 0 .104.04.2.12.29.082.09.168.134.258.134.153 0 .306-.07.459-.212.405-.349.89-.98 1.458-1.894l.465.283c-1.381 2.477-2.85 3.716-4.404 3.716-.595 0-1.068-.165-1.42-.495-.353-.329-.53-.747-.53-1.253 0-.336.086-.764.257-1.282L46.646 9.7c.2-.627.3-1.1.3-1.418 0-.2-.092-.377-.275-.532-.184-.155-.435-.232-.754-.232-.145 0-.32.004-.522.014l.186-.535 4.756-.744h.842zM50.072 0c.568 0 1.046.196 1.435.588.388.392.583.866.583 1.423 0 .556-.197 1.03-.59 1.422-.394.393-.87.588-1.428.588-.55 0-1.02-.195-1.413-.588a1.932 1.932 0 0 1-.591-1.422c0-.557.195-1.03.584-1.423A1.923 1.923 0 0 1 50.072 0z"/>
    <path d="M39.111 8.614c0-.554-.111-.958-.333-1.212-.222-.254-.481-.381-.776-.381-.296 0-.615.15-.957.449-.657.58-1.343 1.75-2.06 3.507-.716 1.757-1.074 3.235-1.074 4.434 0 .436.078.758.236.967.157.209.332.313.527.313.323 0 .647-.145.97-.436.786-.69 1.56-1.877 2.323-3.562.763-1.684 1.144-3.044 1.144-4.08zM45.227 0l-4.616 15.209c-.294.952-.44 1.527-.44 1.726 0 .1.035.188.108.26a.321.321 0 0 0 .23.11c.154 0 .33-.078.529-.233.334-.255.74-.738 1.219-1.45l.488.26c-1.28 2.244-2.686 3.366-4.22 3.366-.544 0-.964-.143-1.259-.428-.295-.285-.442-.65-.442-1.093 0-.426.118-1.032.354-1.82l.43-1.39c-1.139 2.004-2.127 3.337-2.965 3.998-.637.489-1.257.733-1.857.733-.684 0-1.26-.277-1.729-.83-.468-.553-.703-1.36-.703-2.422 0-1.351.303-2.685.908-4 .606-1.316 1.305-2.413 2.099-3.293.793-.88 1.55-1.508 2.271-1.885.719-.376 1.428-.565 2.126-.565.357 0 .676.075.956.223.28.149.598.427.956.835l1.066-3.374c.272-.85.408-1.458.408-1.827a.717.717 0 0 0-.278-.567c-.186-.157-.433-.235-.742-.235-.145 0-.325.014-.541.04l.116-.534L44.374 0h.853z"/>
    <path d="M21.581 6.253l-.604 4.208h-.512c-.072-1.08-.405-1.933-.998-2.555-.594-.62-1.23-.932-1.909-.932-.417 0-.76.122-1.032.367a1.15 1.15 0 0 0-.408.884c0 .291.06.563.177.816.118.255.381.6.79 1.035 1.433 1.542 2.304 2.602 2.614 3.18.31.58.464 1.198.464 1.857 0 .714-.182 1.39-.546 2.027-.364.637-.907 1.148-1.63 1.532a4.753 4.753 0 0 1-2.258.576c-.527 0-1.177-.1-1.95-.3-.509-.14-.89-.21-1.146-.21-.227 0-.405.032-.532.098-.128.065-.269.202-.423.412h-.51l.673-4.533h.441c.318 1.105.616 1.893.893 2.364.277.47.647.845 1.11 1.123.463.28.908.418 1.335.418.5 0 .913-.156 1.24-.469a1.5 1.5 0 0 0 .49-1.123c0-.426-.107-.839-.32-1.238-.214-.399-.706-1.02-1.478-1.864-1.063-1.152-1.763-2.042-2.1-2.67-.238-.456-.356-.976-.356-1.559 0-.984.357-1.804 1.071-2.46.714-.656 1.717-.984 3.01-.984.563 0 1.255.104 2.074.311.41.104.737.155.982.155.355 0 .641-.155.86-.466h.488z"/>
    <path d="M11.88.046L7.265 15.53c-.236.81-.354 1.327-.354 1.545 0 .219.084.445.252.677.168.233.349.384.545.451.195.069.783.13 1.763.184l-.149.49H0l.15-.49c.926-.018 1.571-.095 1.934-.232s.661-.36.892-.67c.232-.31.493-.962.783-1.955l2.714-9.197c.428-1.397.651-2.136.67-2.219.057-.236.086-.458.086-.667 0-.405-.126-.727-.376-.966-.251-.238-.609-.358-1.074-.358-.228 0-.679.036-1.353.108l-.117-.51L11.303.045h.577z"/>
</svg>
